X: 1943
T: Vuslat Yaya Hülyâları Atlı
C: Ömer Dilek
O: Turkey
F: http://compmusic.upf.edu/node/140
N: nihavent--sarki--aksak--vuslat_yaya--omer_dilek
N: makam= nihavent
N: form= sarki
N: usul= aksak = 9/8
M: 9/8
L: 1/16
K: C _B _e  
Q: 1/4=216
%%MIDI tuningsystem comma53
d2e2 d2c2 B2A2 G4 e2 | d12z6  | d2e2 d2c2 B2A2 G4 B2 | \
w:  ARANAĞME  |   |   | 
A12z6  | d2e2 d2c2 B2A2 G4 A2 | 
w:   |   | 
^F12z6  | d2e2 d2c2 B2A2 G4 ^F2 | G12z6  | \
w:   |   |   | 
d2e2 d2c2 B2A2 G4 e2 | d12z6  | 
w:  ARANAĞME  |   | 
d2e2 d2c2 B2A2 G4 B2 | A12z6  | d2e2 d2c2 B2A2 G4 A2 | \
w:   |   |   | 
^F12z6  | d2e2 d2c2 B2A2 G4 ^F2 | 
w:   |   | 
G12z6  | G4 A4 B2B2 z6 | A4B4c2 d2A4B2  | \
w:   |  Vus lat  ya ya   |  hül yâ la rı  at  | 
G6e2 d2c2 B2c2 d2 | c4d4e2 f2e2 d2c2  | 
w:  lı   SAZ  |  Sev dâ  do lu  öm  | 
f4 e2g2 f2e2 {f}e4 d2 | d6 e2d2 c2B2 A2G2  | \
w:  rün  ne si  tat  |  lı   SAZ  | 
G4 A4 B2B2 z6 | A4B4c2 d2A4B2  | 
w:  Vus lat  ya ya   |  hül yâ la rı  at  | 
G6e2 d2c2 B2c2 d2 | c4d4e2 f2e2 d2c2  | \
w:  lı   SAZ  |  Sev dâ  do lu  öm  | 
f4 e2g2 f2e2 {f}e4 d2 | 
w:  rün  ne si  tat  | 
d12z6  | d4 e4 =e2f2 f6 | g4d2 f2e2 d2c2 B2c2  | \
w:  lı    |  Ak şam lar_ ü mit  |  ler le  ka nat  | 
A12 z6 | B3AG4^F2 G2A6  | 
w:  lı    |  Sev *  dâ  do lu  öm  | 
A4 c2B2 A2G2 ^F2G2 AG | G6 A2B2 c2d6  | \
w:  rün  ne si  tat  |  lı   SAZ  | 
d4 e4 =e2f2 f6 | g4d2 f2e2 d2c2 B2c2  | 
w:  Ak şam lar_ ü mit  |  ler le  ka nat  | 
A12 z6 | B3AG4^F2 G2A6  | A4 c2B2 A2G2 ^F2G2 AG | \
w:  lı    |  Sev *  dâ  do lu  öm  |  rün  ne si  tat  | 
G6 A2_7/8B2 ^c2d6  | 
w:  lı   SAZ  | 
G4 d4 d2^c2 d6 | =e4.g4f2 e2d2 ^c2e2  | \
w:  Câ nân  ge zi nir   |  gam da  se vinç  | 
d6d2 =e2^f2 g6 | g4g4g2 g2f2 =e2d2  | 
w:  te   SAZ  |  Gür  saç la rı  geç  | 
f4 d2f2 =e2d2 ^c2_7/8B2 A2 | G6 =e2d2 ^c2_7/8B2 A2G2  | \
w:  mez  e le  hiç   |  de   SAZ  | 
G4 d4 d2^c2 d6 | =e4.g4f2 e2d2 ^c2e2  | 
w:  Câ nân  ge zi nir   |  gam da  se vinç  | 
d6d2 =e2^f2 g6 | g4g4g2 g2f2 =e2d2  | \
w:  te   SAZ  |  Gür  saç la rı  geç  | 
f4 d2f2 e2d2 c2B2 c2 | d12z6  | 
w:  mez  e le  hiç   |  de    | 
d4 e4 =e2f2 f6 | g4d2 f2e2 d2c2 B2c2  | \
w:  Ak şam lar_ ü mit  |  ler le  ka nat  | 
A12 z6 | B3AG4^F2 G2A6  | 
w:  lı    |  Sev *  dâ  do lu  öm  | 
A4 c2B2 A2G2 ^F2G2 AG | G6 A2B2 c2d6  | \
w:  rün  ne si  tat  |  lı   SAZ  | 
d4 e4 =e2f2 f6 | g4d2 f2e2 d2c2 B2c2  | 
w:  Ak şam lar_ ü mit  |  ler le  ka nat  | 
A12 z6 | B3AG4^F2 G2A6  | A4 c2B2 A2G2 ^F2G2 AG | \
w:  lı    |  Sev *  dâ  do lu  öm  |  rün  ne si  tat  | 
G6 |
w:  lı    | 


